X:0
T:The Sheepwife
G:reel
S:Glendaruel Collection
M:C|
L:1/8
Q:1/2=92
K:Hp
% c and f gaps
B<dG>B e2 g2 |d>BB>g B<BB<G|B<dG>B e2 g2 |d>Bg>B A<AA<G |
B<dG>B e2 g2 |d>BB>g B<BB<G|B<dG>B e2 g2 |d>Gd>B A<Aa2 ||
% high g gap, d only introduced at the end
c<AA<A c<AA<A|c>AA>c B<BB<G|c<AA<A A<Ac<A|B<BB<G A<AA<G |
c<AA<A A<Ac<A|A<ec<A B<BB<G|c2 A>c f>ec<A|B<Gd>B A<AA<G||
% c gap
B>GG>B g2 f<e|d2 G<g B<BB<G|B>GG>B g2 f<e|d>BG>B A<AA<G |
B>GG>B g2 f<e|d2 G<g B<BB<G|B>GG>B g2 f<e|d>Gd>B A<Aa2 ||
% d, f and high g gaps
c<AA<A A<Ac<A|c<Ac<e B<BB<G|c<AA<A A<Ac<A|B<Gd>B A<AA<G |
c<AA<A A<Ac<A|c<Ac<e B<BB<G|c<Ac<A c<cc<A|B<BB<G A<AA<G||
% c gap
g2 f<g d2 G<B|e<gf<g B<BB<G|g2 f<g d2 G<B|e<gd>B A<AA<G |
g2 f<g d2 G<B|e<gf<g B<BB<G|g2 f<e a2 g<f|g2 d>B A<Aa2 ||
% high g gap
c2 c<A c<ccA |c2 c<A B<BB<G|c2 A>c f>ec<A|B<Gd>B A<AA<G |
c2 A>c c<ec<A|c<ee>c B<dB<G|c2 A>c f>ec<A|B<Gd>B A<Aa2 |]

Many tunes from Eastern Europe and the Middle East span less than an octave,
which creates gaps at the ends of the range.  This occurs in a few Scottish
tunes as well:

